!!!OTL: Emmanuel de
**kern
*staff1
=--
*clefC1
*k[]
1d
2f
2f
=-
2g
2g
2a
2g
=-
2f
2b-
2a
2g
=-
2a
1g
2f
1g
=-
!!linebreak:original
1b
1b
1b
=-
0a
1a
=-
1b
1b
1b
=-
0a
1a
=-
0.b
=-
!!linebreak:original
0b
1b
=-
0cc
1cc
=-
0b
1a
=-
0.b
=-
0g
1a
=-
0.b
!!linebreak:original
=-
0b
1b
=-
!LO:TX:Y=-36:t=P
0.b
=-
0cc
1b
=-
1a
0g
=-
0.a
=-=
*-
!!title: @{OTL}, @{GTL}, ed. @{ENC}
!!!pag:
!!!GTL: Hymnbook C
!!!EFL: 
!!!YEM: Creative Commons CC/BY/NC/SA 4.0
!!!ENC: Marcin Konik
!!!END: 2015-0m-dd
!!!EED: Marcin Konik
!!!EEV: 
!!!ONB: Encoded in vim by Marcin Konik
!!!CharacterEncoding: utf-8
!!!RDF**kern: l=long note in original notation
!!!RDF**kern: i=editorial accidental
!!muse2ps: z14jc180F
!!!COM: Anonim
!!!CDT: [?]
!!!TXO: Polish
!!!ODT: 
!!!GTL: Hymnbook C
!!!ARL: Opactwo św. Wojciecha, Staniątki 
!!!voices:	1
